build/svg/cmd/sc_starshapes.star12.svg

<?xml version="1.0" encoding="UTF-8" standalone="no"?>
<svg
   xmlns:dc="http://purl.org/dc/elements/1.1/"
   xmlns:cc="http://creativecommons.org/ns#"
   xmlns:rdf="http://www.w3.org/1999/02/22-rdf-syntax-ns#"
   xmlns:svg="http://www.w3.org/2000/svg"
   xmlns="http://www.w3.org/2000/svg"
   xmlns:sodipodi="http://sodipodi.sourceforge.net/DTD/sodipodi-0.dtd"
   xmlns:inkscape="http://www.inkscape.org/namespaces/inkscape"
   viewBox="0 0 16 16"
   version="1.1"
   id="svg4"
   sodipodi:docname="sc_starshapes.star12.svg"
   inkscape:version="0.92.4 (5da689c313, 2019-01-14)"
   inkscape:export-filename="/home/jupiter007/Libreoffice yaru theme fullcolor/build/cmd/sc_starshapes.star12.png"
   inkscape:export-xdpi="96"
   inkscape:export-ydpi="96"><metadata
   id="metadata10">
  <rdf:RDF>
    <cc:Work
       rdf:about="">
      <dc:format>image/svg+xml</dc:format>
      <dc:type
         rdf:resource="http://purl.org/dc/dcmitype/StillImage" />
    </cc:Work>
  </rdf:RDF>
</metadata>
<defs
   id="defs8" />
<sodipodi:namedview
   pagecolor="#ffffff"
   bordercolor="#666666"
   borderopacity="1"
   objecttolerance="10"
   gridtolerance="10"
   guidetolerance="10"
   inkscape:pageopacity="0"
   inkscape:pageshadow="2"
   inkscape:window-width="1920"
   inkscape:window-height="1011"
   id="namedview6"
   showgrid="true"
   inkscape:zoom="29.5"
   inkscape:cx="3.6281931"
   inkscape:cy="4.3769149"
   inkscape:window-x="0"
   inkscape:window-y="32"
   inkscape:window-maximized="1"
   inkscape:current-layer="svg4">
  <inkscape:grid
     type="xygrid"
     id="grid837" />
</sodipodi:namedview>

/&gt;<path
   id="path835"
   d="M 8,2 7.21875,5.09375 5,2.78125 5.875,5.875 2.8125,5 5.09375,7.21875 2,8 5.09375,8.78125 2.8125,11 5.875,10.125 5,13.1875 7,11 C 7.5712145,10.259405 8.3210215,9.5496014 10,9 L 10.90625,8.78125 14,8 10.90625,7.21875 13.21875,5 10.125,5.875 11,2.78125 8.78125,5.09375 Z"
   style="fill:#000000;stroke:#000000;opacity:0.6;stroke-linejoin:round;stroke-width:2;stroke-miterlimit:4;stroke-dasharray:none" />
<path
   style="fill:#ffffff"
   d="M 8,2 7.21875,5.09375 5,2.78125 5.875,5.875 2.8125,5 5.09375,7.21875 2,8 5.09375,8.78125 2.8125,11 5.875,10.125 5,13.1875 7,11 C 7.5712145,10.259405 8.3210215,9.5496014 10,9 L 10.90625,8.78125 14,8 10.90625,7.21875 13.21875,5 10.125,5.875 11,2.78125 8.78125,5.09375 Z"
   id="path823" />
<g
   aria-label="12"
   style="font-style:normal;font-weight:normal;font-size:40px;line-height:1.25;font-family:sans-serif;letter-spacing:0px;word-spacing:0px;opacity:0.6;fill:#000000;fill-opacity:1;stroke:#000000;stroke-width:2;stroke-linejoin:round;stroke-miterlimit:4;stroke-dasharray:none"
   id="text845">
  <path
     d="m 5.5039062,13.960938 h 1.328125 V 10.191406 L 5.46875,10.472656 V 9.4492188 l 1.3554687,-0.28125 h 1.4296876 v 4.7929692 h 1.328125 V 15 H 5.5039062 Z"
     style="font-style:normal;font-variant:normal;font-weight:bold;font-stretch:normal;font-size:8px;font-family:sans-serif;-inkscape-font-specification:'sans-serif, Bold';font-variant-ligatures:normal;font-variant-caps:normal;font-variant-numeric:normal;font-feature-settings:normal;text-align:start;writing-mode:lr-tb;text-anchor:start;fill:#000000;stroke:#000000;stroke-width:2;stroke-linejoin:round;stroke-miterlimit:4;stroke-dasharray:none"
     id="path818" />
  <path
     d="M 12.433594,13.894531 H 15 V 15 h -4.238281 v -1.105469 l 2.128906,-1.878906 Q 13.175781,11.757813 13.3125,11.511719 13.449219,11.265625 13.449219,11 q 0,-0.410156 -0.277344,-0.660156 -0.273437,-0.25 -0.730469,-0.25 -0.351562,0 -0.769531,0.152344 -0.417969,0.148437 -0.894531,0.445312 V 9.40625 Q 11.285156,9.2382813 11.78125,9.1523438 12.277344,9.0625 12.753906,9.0625 q 1.046875,0 1.625,0.4609375 0.582032,0.4609375 0.582032,1.2851565 0,0.476562 -0.246094,0.890625 -0.246094,0.410156 -1.035156,1.101562 z"
     style="font-style:normal;font-variant:normal;font-weight:bold;font-stretch:normal;font-size:8px;font-family:sans-serif;-inkscape-font-specification:'sans-serif, Bold';font-variant-ligatures:normal;font-variant-caps:normal;font-variant-numeric:normal;font-feature-settings:normal;text-align:start;writing-mode:lr-tb;text-anchor:start;fill:#000000;stroke:#000000;stroke-width:2;stroke-linejoin:round;stroke-miterlimit:4;stroke-dasharray:none"
     id="path820" />
</g>
<g
   aria-label="12"
   style="font-style:normal;font-weight:normal;font-size:40px;line-height:1.25;font-family:sans-serif;letter-spacing:0px;word-spacing:0px;fill:#ffffff;fill-opacity:1;stroke:none"
   id="text841">
  <path
     d="m 5.5039062,13.960938 h 1.328125 V 10.191406 L 5.46875,10.472656 V 9.4492188 l 1.3554687,-0.28125 h 1.4296876 v 4.7929692 h 1.328125 V 15 H 5.5039062 Z"
     style="font-style:normal;font-variant:normal;font-weight:bold;font-stretch:normal;font-size:8px;font-family:sans-serif;-inkscape-font-specification:'sans-serif, Bold';font-variant-ligatures:normal;font-variant-caps:normal;font-variant-numeric:normal;font-feature-settings:normal;text-align:start;writing-mode:lr-tb;text-anchor:start;fill:#ffffff"
     id="path824" />
  <path
     d="M 12.433594,13.894531 H 15 V 15 h -4.238281 v -1.105469 l 2.128906,-1.878906 Q 13.175781,11.757813 13.3125,11.511719 13.449219,11.265625 13.449219,11 q 0,-0.410156 -0.277344,-0.660156 -0.273437,-0.25 -0.730469,-0.25 -0.351562,0 -0.769531,0.152344 -0.417969,0.148437 -0.894531,0.445312 V 9.40625 Q 11.285156,9.2382813 11.78125,9.1523438 12.277344,9.0625 12.753906,9.0625 q 1.046875,0 1.625,0.4609375 0.582032,0.4609375 0.582032,1.2851565 0,0.476562 -0.246094,0.890625 -0.246094,0.410156 -1.035156,1.101562 z"
     style="font-style:normal;font-variant:normal;font-weight:bold;font-stretch:normal;font-size:8px;font-family:sans-serif;-inkscape-font-specification:'sans-serif, Bold';font-variant-ligatures:normal;font-variant-caps:normal;font-variant-numeric:normal;font-feature-settings:normal;text-align:start;writing-mode:lr-tb;text-anchor:start;fill:#ffffff"
     id="path826" />
</g>
</svg>

<svg xmlns="http://www.w3.org/2000/svg" viewBox="0 0 16 16">/&gt;<path d="M8 2l-.781 3.094L5 2.78l.875 3.094L2.812 5l2.282 2.219L2 8l3.094.781L2.812 11l3.063-.875L5 13.188 7 11c.571-.74 1.321-1.45 3-2l.906-.219L14 8l-3.094-.781L13.22 5l-3.094.875L11 2.781 8.781 5.094z" stroke="#000" opacity=".6" stroke-linejoin="round" stroke-width="2"/><path d="M8 2l-.781 3.094L5 2.78l.875 3.094L2.812 5l2.282 2.219L2 8l3.094.781L2.812 11l3.063-.875L5 13.188 7 11c.571-.74 1.321-1.45 3-2l.906-.219L14 8l-3.094-.781L13.22 5l-3.094.875L11 2.781 8.781 5.094z" fill="#fff"/><g aria-label="12" style="line-height:1.25" font-weight="700" font-size="8" font-family="sans-serif" letter-spacing="0" word-spacing="0" opacity=".6" stroke="#000" stroke-width="2" stroke-linejoin="round"><path d="M5.504 13.96h1.328v-3.769l-1.363.282V9.449l1.355-.281h1.43v4.793h1.328V15H5.504zM12.434 13.895H15V15h-4.238v-1.105l2.129-1.88q.285-.257.421-.503.137-.246.137-.512 0-.41-.277-.66-.274-.25-.73-.25-.352 0-.77.152-.418.149-.895.445v-1.28q.508-.169 1.004-.255.496-.09.973-.09 1.047 0 1.625.461.582.461.582 1.286 0 .476-.246.89-.246.41-1.035 1.102z" style="-inkscape-font-specification:'sans-serif, Bold';font-variant-ligatures:normal;font-variant-caps:normal;font-variant-numeric:normal;font-feature-settings:normal;text-align:start"/></g><g aria-label="12" style="line-height:1.25" font-weight="700" font-size="8" font-family="sans-serif" letter-spacing="0" word-spacing="0" fill="#fff"><path d="M5.504 13.96h1.328v-3.769l-1.363.282V9.449l1.355-.281h1.43v4.793h1.328V15H5.504zM12.434 13.895H15V15h-4.238v-1.105l2.129-1.88q.285-.257.421-.503.137-.246.137-.512 0-.41-.277-.66-.274-.25-.73-.25-.352 0-.77.152-.418.149-.895.445v-1.28q.508-.169 1.004-.255.496-.09.973-.09 1.047 0 1.625.461.582.461.582 1.286 0 .476-.246.89-.246.41-1.035 1.102z" style="-inkscape-font-specification:'sans-serif, Bold';font-variant-ligatures:normal;font-variant-caps:normal;font-variant-numeric:normal;font-feature-settings:normal;text-align:start"/></g></svg>
